X: 16699
T: Happy Go Lucky Clog
R: hornpipe
M: 4/4
K: Dmajor
|:(3.F.G.A DF ADFA|FAdf a4|(3gbg eg (3.f.g.a dA|BGAF EFGE|
(3.F.G.A DF ADFA|FBdf a4|(3gbg ec dABG|1 F2D2 D3z:|2 F2D2D2 (3abc'||
d'aec dAFA|dAeA f4|(3gbg eg (3.f.g.a dA|BGAF EFGz|
d'aec dAFA|dAeA f4|(3ege ce dABG|F2D2D3a|
d'aec dAFA|dAeA f4|(3gbg eg (3.f.g.a dA|BGAF EFGE|
(3.F.G.A DF ADFA|FAdf a4|(3gbg ec dABG|F2D2 D4||

